.local/share/icons/Gruvbox-Plus-Dark/status/symbolic/security-medium-symbolic.svg

<svg width="16" height="16" version="1.1" xmlns="http://www.w3.org/2000/svg">
  <defs>
    <style id="current-color-scheme" type="text/css">.ColorScheme-Text { color:#ebdbb2; } .ColorScheme-Highlight { color:#458588; } .ColorScheme-NeutralText { color:#fe8019; } .ColorScheme-PositiveText { color:#689d6a; } .ColorScheme-NegativeText { color:#fb4934; }</style>
  </defs>
  <path class="ColorScheme-Highlight" d="m8 1-6 2v6c0 2.07 1.5795 3.489 2.9395 4.439s3.0605 1.561 3.0605 1.561 1.7005-0.611 3.061-1.561c1.36-0.96 2.939-2.399 2.939-4.439v-6zm-1 3h2v5h-2zm0 6h2v2h-2z" fill="currentColor"/>
</svg>

<svg xmlns="http://www.w3.org/2000/svg" width="16" height="16" version="1.1">
 <path style="fill:#458588" class="warning" d="M 8 0 L 2 2 L 2 9 C 2 11.07 3.5795 12.489 4.9395 13.439 C 6.2995 14.389 8 15 8 15 C 8 15 9.7005 14.389 11.061 13.439 C 12.421 12.479 14 11.04 14 9 L 14 2 L 8 0 z M 7 3 L 9 3 L 9 9 L 7 9 L 7 3 z M 7 10 L 9 10 L 9 12 L 7 12 L 7 10 z"/>
</svg>
